images/logo/resources-strelka.svg

<svg width="160" height="32" viewBox="0 0 160 32" fill="none" xmlns="http://www.w3.org/2000/svg">
<path d="M18.1315 9.23116L18.5389 8.82327C18.5389 3.92853 14.6274 0.461426 9.5343 0.461426C4.44119 0.461426 0.611173 3.92853 0.611173 8.41537C0.611173 13.3101 3.66704 15.9614 7.5378 17.2259C8.55642 17.5522 9.81951 17.9193 10.7974 18.1641C12.7939 18.6535 15.0756 19.8364 15.0756 22.6917C15.0756 25.343 13.2421 27.1785 9.77877 27.1785C6.96737 27.1785 4.19672 25.1391 4.27821 21.468L3.87076 21.0601L0.203725 22.2838L0 22.6917C0.0814897 27.2601 4.23746 31.4614 9.77877 31.4614C16.0942 31.4614 19.3538 26.9746 19.3538 22.6917C19.3538 17.797 16.2979 15.2272 12.4272 14.1667L9.16759 13.2285C5.98949 12.2904 4.88938 10.8627 4.88938 8.41537C4.88938 6.21274 6.7229 4.54037 9.57504 4.54037C12.4272 4.54037 14.2607 6.57985 14.2607 8.82327L14.6682 9.23116H18.1315Z" fill="#BDBDBD"/>
<path d="M23.8485 4.74432L24.2559 5.15222H30.8566V30.4417L31.264 30.8496H34.7681L35.1755 30.4417V5.15222H41.7762L42.1837 4.74432V1.48116L41.7762 1.07327H24.2559L23.8485 1.48116V4.74432Z" fill="#BDBDBD"/>
<path d="M47.4932 30.4417L47.9007 30.8496H51.364L51.7714 30.4417V17.593H52.3826L61.7539 30.4417L62.1614 30.8496H66.6433V30.0338L57.2313 17.5522C61.7539 17.3891 66.0321 14.3706 66.0321 9.43511C66.0321 4.13248 61.7539 1.07327 56.8646 1.07327H47.9007L47.4932 1.48116V30.4417ZM51.7714 13.718V5.15222H57.0683C59.513 5.15222 61.7539 6.57985 61.7539 9.43511C61.7539 12.2904 59.513 13.718 57.0683 13.718H51.7714Z" fill="#BDBDBD"/>
<path d="M70.7305 30.4417L71.138 30.8496H88.2508L88.6583 30.4417V27.1785L88.2508 26.7706H75.0087V17.797H87.8434L88.2508 17.3891V14.1259L87.8434 13.718H75.0087V5.15222H88.2508L88.6583 4.74432V1.48116L88.2508 1.07327H71.138L70.7305 1.48116V30.4417Z" fill="#BDBDBD"/>
<path d="M93.9678 30.4417L94.3753 30.8496H111.488L111.896 30.4417V27.1785L111.488 26.7706H98.246V1.48116L97.8386 1.07327H94.3753L93.9678 1.48116V30.4417Z" fill="#BDBDBD"/>
<path d="M131.058 1.07327L130.651 1.48116L121.483 13.3101V1.48116L121.117 1.07327H117.613L117.205 1.48116V30.4417L117.613 30.8496H121.076L121.483 30.4417V18.2048L131.058 30.4417L131.466 30.8496H136.152L136.355 30.4417L124.539 15.5535L135.948 1.48116L135.744 1.07327H131.058Z" fill="#BDBDBD"/>
<path d="M138.405 30.4417L138.609 30.8496H142.48L142.887 30.4417L144.639 23.5075H153.766L155.518 30.4417L155.925 30.8496H159.796L160 30.4417L151.851 1.48116L151.444 1.07327H146.962L146.554 1.48116L138.405 30.4417ZM149.203 6.3759L152.666 19.4285H145.739L149.203 6.3759Z" fill="#BDBDBD"/>
</svg>

<svg width="160" height="32" fill="none" xmlns="http://www.w3.org/2000/svg"><path d="m18.131 9.231.408-.408c0-4.894-3.912-8.362-9.005-8.362C4.441.461.611 3.93.611 8.415c0 4.895 3.056 7.546 6.927 8.81 1.018.327 2.282.694 3.26.94 1.996.489 4.278 1.671 4.278 4.527 0 2.651-1.834 4.486-5.297 4.486-2.812 0-5.582-2.039-5.5-5.71l-.408-.408-3.667 1.224-.204.408c.081 4.568 4.237 8.77 9.779 8.77 6.315 0 9.575-4.487 9.575-8.77 0-4.895-3.056-7.465-6.927-8.525l-3.26-.938C5.99 12.29 4.89 10.863 4.89 8.415c0-2.202 1.834-3.875 4.686-3.875s4.686 2.04 4.686 4.283l.407.408h3.463ZM23.849 4.744l.407.408h6.6v25.29l.408.408h3.504l.407-.408V5.152h6.601l.408-.408V1.481l-.408-.408h-17.52l-.407.408v3.263ZM47.493 30.442l.408.408h3.463l.407-.408V17.593h.612l9.37 12.849.408.408h4.482v-.816l-9.412-12.482c4.523-.163 8.801-3.181 8.801-8.117 0-5.303-4.278-8.362-9.167-8.362H47.9l-.408.408v28.96Zm4.278-16.724V5.152h5.297c2.445 0 4.686 1.428 4.686 4.283 0 2.855-2.241 4.283-4.686 4.283h-5.297ZM70.73 30.442l.408.408h17.113l.407-.408v-3.264l-.407-.407H75.009v-8.974h12.834l.408-.408v-3.263l-.408-.408H75.01V5.152H88.25l.407-.408V1.481l-.407-.408H71.138l-.407.408v28.96ZM93.968 30.442l.407.408h17.113l.408-.408v-3.264l-.408-.407H98.246V1.48l-.407-.408h-3.464l-.407.408v28.96ZM131.058 1.073l-.407.408-9.168 11.83V1.48l-.366-.408h-3.504l-.408.408v28.96l.408.409h3.463l.407-.408V18.205l9.575 12.237.408.408h4.686l.203-.408-11.816-14.889 11.409-14.072-.204-.408h-4.686ZM138.405 30.442l.204.408h3.871l.407-.408 1.752-6.934h9.127l1.752 6.934.407.408h3.871l.204-.408-8.149-28.96-.407-.409h-4.482l-.408.408-8.149 28.96Zm10.798-24.066 3.463 13.052h-6.927l3.464-13.052Z" fill="#BDBDBD"/></svg>
